dist/images/icons/user_cart.svg

<svg width="44" height="44" viewBox="0 0 44 44" fill="none" xmlns="http://www.w3.org/2000/svg">
<path d="M33 39.6C33 38.385 33.985 37.4 35.2 37.4C36.415 37.4 37.4 38.385 37.4 39.6C37.4 40.815 36.415 41.8 35.2 41.8C33.985 41.8 33 40.815 33 39.6Z" stroke="#555555" stroke-width="2" stroke-linecap="round" stroke-linejoin="round"/>
<path d="M11 39.6C11 38.385 11.985 37.4 13.2 37.4C14.415 37.4 15.4 38.385 15.4 39.6C15.4 40.815 14.415 41.8 13.2 41.8C11.985 41.8 11 40.815 11 39.6Z" stroke="#555555" stroke-width="2" stroke-linecap="round" stroke-linejoin="round"/>
<path d="M2.2002 1.20001C1.64791 1.20001 1.2002 1.64773 1.2002 2.20001C1.2002 2.7523 1.64791 3.20001 2.2002 3.20001V1.20001ZM6.05261 4.00061L7.036 3.81906V3.81906L6.05261 4.00061ZM10.0168 30.9816C10.1171 31.5247 10.6386 31.8837 11.1817 31.7834C11.7248 31.6831 12.0838 31.1616 11.9836 30.6185L10.0168 30.9816ZM2.2002 3.20001H3.88917V1.20001H2.2002V3.20001ZM5.06923 4.18216L10.0168 30.9816L11.9836 30.6185L7.036 3.81906L5.06923 4.18216ZM3.88917 3.20001C4.46789 3.20001 4.96417 3.61305 5.06923 4.18216L7.036 3.81906C6.75582 2.30145 5.43242 1.20001 3.88917 1.20001V3.20001Z" fill="#555555"/>
<path d="M7.7002 7.79999C7.14791 7.79999 6.7002 8.2477 6.7002 8.79999C6.7002 9.35227 7.14791 9.79999 7.7002 9.79999V7.79999ZM41.1783 11.4947L42.1527 11.7195L41.1783 11.4947ZM37.1168 29.0947L38.0912 29.3195V29.3195L37.1168 29.0947ZM11.0002 29.8C10.4479 29.8 10.0002 30.2477 10.0002 30.8C10.0002 31.3523 10.4479 31.8 11.0002 31.8V29.8ZM7.7002 9.79999H39.0347V7.79999H7.7002V9.79999ZM40.204 11.2698L36.1424 28.8698L38.0912 29.3195L42.1527 11.7195L40.204 11.2698ZM34.9731 29.8H11.0002V31.8H34.9731V29.8ZM36.1424 28.8698C36.0168 29.4143 35.5319 29.8 34.9731 29.8V31.8C36.4632 31.8 37.7561 30.7715 38.0912 29.3195L36.1424 28.8698ZM39.0347 9.79999C39.8064 9.79999 40.3775 10.5179 40.204 11.2698L42.1527 11.7195C42.6155 9.71436 41.0926 7.79999 39.0347 7.79999V9.79999Z" fill="#555555"/>
</svg>

<svg width="44" height="44" fill="none" xmlns="http://www.w3.org/2000/svg"><path d="M33 39.6a2.2 2.2 0 114.4 0 2.2 2.2 0 01-4.4 0zm-22 0a2.2 2.2 0 114.4 0 2.2 2.2 0 01-4.4 0z" stroke="#555" stroke-width="2" stroke-linecap="round" stroke-linejoin="round"/><path d="M2.2 1.2a1 1 0 100 2v-2zM6.053 4l.983-.18-.983.18zm3.964 26.982a1 1 0 101.967-.363l-1.967.363zM2.2 3.2h1.69v-2H2.2v2zm2.87.982l4.947 26.8 1.967-.363-4.948-26.8-1.967.363zM3.89 3.2a1.2 1.2 0 011.18.982l1.966-.363A3.2 3.2 0 003.889 1.2v2z" fill="#555"/><path d="M7.7 7.8a1 1 0 100 2v-2zm33.478 3.695l.975.225-.975-.225zm-4.061 17.6l.974.225-.974-.225zM11 29.8a1 1 0 100 2v-2zm-3.3-20h31.335v-2H7.7v2zm32.504 1.47l-4.062 17.6 1.95.45 4.06-17.6-1.948-.45zm-5.23 18.53H11v2h23.973v-2zm1.168-.93a1.2 1.2 0 01-1.169.93v2a3.2 3.2 0 003.118-2.48l-1.949-.45zM39.035 9.8a1.2 1.2 0 011.169 1.47l1.949.45a3.2 3.2 0 00-3.118-3.92v2z" fill="#555"/></svg>
